X:21
T:Touchstone THO4.021, The
M:2/4
L:1/8
Z:vmp. Peter Dunk 2010/11.from a transcription by Fynn Titford-Mock 2007
B:Thompson's Compleat Collection of 200 Favourite Country Dances Volume IV.
Q:1/4=100
K:D
dfdf|(g/f/e/d/) (d/c/B/A/)|dfdf|aa a2|\
(g/f/e/d/) (d/c/B/A/)|Bgec|d2-d2:|
{cd}ed"*"f"*"d | geaf | B2 cd | (c/d/c/B/) A2 ecfd |\
geaf|Bb (a/g/f/e/)|"_** orig. E. C#."d2-d2|
